hero/solid/document-chart-bar.svg

<svg width="24" height="24" viewBox="0 0 24 24" fill="none" xmlns="http://www.w3.org/2000/svg">
<path fill-rule="evenodd" clip-rule="evenodd" d="M5.625 1.5H9C11.0711 1.5 12.75 3.17893 12.75 5.25V7.125C12.75 8.16053 13.5895 9 14.625 9H16.5C18.5711 9 20.25 10.6789 20.25 12.75V20.625C20.25 21.6605 19.4105 22.5 18.375 22.5H5.625C4.58947 22.5 3.75 21.6605 3.75 20.625V3.375C3.75 2.33947 4.58947 1.5 5.625 1.5ZM9.75 17.25C9.75 16.8358 9.41421 16.5 9 16.5C8.58579 16.5 8.25 16.8358 8.25 17.25V18C8.25 18.4142 8.58579 18.75 9 18.75C9.41421 18.75 9.75 18.4142 9.75 18V17.25ZM12 14.25C12.4142 14.25 12.75 14.5858 12.75 15V18C12.75 18.4142 12.4142 18.75 12 18.75C11.5858 18.75 11.25 18.4142 11.25 18V15C11.25 14.5858 11.5858 14.25 12 14.25ZM15.75 12.75C15.75 12.3358 15.4142 12 15 12C14.5858 12 14.25 12.3358 14.25 12.75V18C14.25 18.4142 14.5858 18.75 15 18.75C15.4142 18.75 15.75 18.4142 15.75 18V12.75Z" fill="#0F172A"/>
<path d="M14.25 5.25C14.25 3.93695 13.768 2.73648 12.9712 1.8159C16.3701 2.70377 19.0462 5.37988 19.9341 8.77881C19.0135 7.98204 17.8131 7.5 16.5 7.5H14.625C14.4179 7.5 14.25 7.33211 14.25 7.125V5.25Z" fill="#0F172A"/>
</svg>

<svg viewBox="0 0 24 24" xmlns="http://www.w3.org/2000/svg"><path fill-rule="evenodd" d="M5.625 1.5H9v0c2.07 0 3.75 1.67 3.75 3.75v1.875c0 1.03.84 1.875 1.875 1.875H16.5v0c2.07 0 3.75 1.67 3.75 3.75v7.875c0 1.03-.84 1.875-1.875 1.875H5.625v0c-1.04 0-1.875-.84-1.875-1.875V3.375c0-1.036.84-1.875 1.875-1.875ZM9.75 17.25v0c0-.42-.34-.75-.75-.75 -.42 0-.75.33-.75.75V18v0c0 .41.33.75.75.75 .41 0 .75-.34.75-.75v-.75Zm2.25-3v0c.41 0 .75.33.75.75v3 0c0 .41-.34.75-.75.75 -.42 0-.75-.34-.75-.75v-3 0c0-.42.33-.75.75-.75Zm3.75-1.5v0c0-.42-.34-.75-.75-.75 -.42 0-.75.33-.75.75V18v0c0 .41.33.75.75.75 .41 0 .75-.34.75-.75v-5.25Z"/><path d="M14.25 5.25v0c0-1.27-.46-2.49-1.28-3.44L12.96 1.8c3.4.89 6.06 3.55 6.96 6.96v0c-.96-.83-2.18-1.29-3.44-1.28h-1.875v0c-.21 0-.375-.17-.375-.375v-1.88Z"/></svg>
